img/redes/instagram-p.svg

<svg width="32" height="32" viewBox="0 0 32 32" fill="none" xmlns="http://www.w3.org/2000/svg">
<g clip-path="url(#clip0_144_68)">
<path d="M16 0C11.653 0 11.11 0.02 9.404 0.096C7.7 0.176 6.54 0.444 5.52 0.84C4.45194 1.24125 3.48439 1.87092 2.685 2.685C1.87021 3.48382 1.24043 4.45153 0.84 5.52C0.444 6.54 0.175 7.7 0.096 9.404C0.016 11.111 0 11.654 0 16C0 20.347 0.02 20.89 0.096 22.596C0.176 24.299 0.444 25.46 0.84 26.48C1.24159 27.5479 1.87122 28.5154 2.685 29.315C3.48419 30.1293 4.45179 30.759 5.52 31.16C6.541 31.555 7.701 31.825 9.404 31.904C11.111 31.984 11.654 32 16 32C20.347 32 20.89 31.98 22.596 31.904C24.299 31.824 25.46 31.554 26.48 31.16C27.5476 30.7579 28.515 30.1284 29.315 29.315C30.1296 28.516 30.7594 27.5484 31.16 26.48C31.555 25.46 31.825 24.299 31.904 22.596C31.984 20.889 32 20.346 32 16C32 11.653 31.98 11.11 31.904 9.404C31.824 7.701 31.554 6.539 31.16 5.52C30.7582 4.4522 30.1286 3.48476 29.315 2.685C28.5164 1.86993 27.5486 1.24011 26.48 0.84C25.46 0.444 24.299 0.175 22.596 0.096C20.889 0.016 20.346 0 16 0ZM16 2.88C20.27 2.88 20.78 2.901 22.467 2.975C24.027 3.048 24.873 3.307 25.436 3.528C26.186 3.818 26.716 4.164 27.279 4.723C27.837 5.283 28.184 5.815 28.473 6.564C28.692 7.127 28.953 7.974 29.024 9.534C29.1 11.221 29.117 11.728 29.117 16C29.117 20.272 29.097 20.78 29.019 22.467C28.937 24.027 28.677 24.873 28.457 25.436C28.159 26.186 27.819 26.716 27.259 27.279C26.7418 27.8085 26.1133 28.2163 25.419 28.473C24.859 28.692 23.999 28.953 22.439 29.024C20.74 29.1 20.24 29.117 15.96 29.117C11.679 29.117 11.179 29.097 9.481 29.019C7.92 28.937 7.06 28.677 6.5 28.457C5.741 28.159 5.22 27.819 4.661 27.259C4.12578 26.7453 3.7153 26.1159 3.461 25.419C3.241 24.859 2.983 23.999 2.901 22.439C2.841 20.759 2.82 20.24 2.82 15.98C2.82 11.719 2.841 11.199 2.901 9.499C2.983 7.939 3.241 7.08 3.461 6.52C3.741 5.76 4.1 5.24 4.661 4.679C5.22 4.12 5.741 3.76 6.5 3.48C7.06 3.26 7.901 3 9.461 2.92C11.161 2.86 11.661 2.84 15.94 2.84L16 2.88ZM16 7.784C14.921 7.78387 13.8526 7.99629 12.8557 8.40914C11.8588 8.82198 10.9531 9.42717 10.1901 10.1901C9.42717 10.9531 8.82198 11.8588 8.40914 12.8557C7.99629 13.8526 7.78387 14.921 7.784 16C7.784 20.54 11.464 24.216 16 24.216C20.54 24.216 24.216 20.536 24.216 16C24.216 11.46 20.536 7.784 16 7.784ZM16 21.334C15.2995 21.3341 14.6059 21.1962 13.9588 20.9282C13.3116 20.6602 12.7236 20.2673 12.2284 19.7719C11.7331 19.2766 11.3403 18.6885 11.0724 18.0413C10.8045 17.3941 10.6667 16.7005 10.667 16C10.6669 15.2996 10.8047 14.6061 11.0727 13.959C11.3406 13.3119 11.7335 12.7239 12.2287 12.2287C12.7239 11.7335 13.3119 11.3406 13.959 11.0727C14.6061 10.8047 15.2996 10.6669 16 10.667C16.7004 10.6669 17.3939 10.8047 18.041 11.0727C18.6881 11.3406 19.2761 11.7335 19.7713 12.2287C20.2665 12.7239 20.6594 13.3119 20.9273 13.959C21.1953 14.6061 21.3331 15.2996 21.333 16C21.3331 16.7004 21.1953 17.3939 20.9273 18.041C20.6594 18.6881 20.2665 19.2761 19.7713 19.7713C19.2761 20.2665 18.6881 20.6594 18.041 20.9273C17.3939 21.1953 16.7004 21.3341 16 21.334ZM26.461 7.46C26.461 8.52 25.6 9.38 24.541 9.38C23.481 9.38 22.621 8.519 22.621 7.46C22.6371 6.96151 22.8464 6.48882 23.2047 6.14189C23.5631 5.79495 24.0423 5.60098 24.541 5.60098C25.0397 5.60098 25.5189 5.79495 25.8773 6.14189C26.2356 6.48882 26.4449 6.96151 26.461 7.46Z" fill="url(#paint0_linear_144_68)"/>
</g>
<defs>
<linearGradient id="paint0_linear_144_68" x1="16" y1="0" x2="16" y2="32" gradientUnits="userSpaceOnUse">
<stop stop-color="#AC62CB"/>
<stop offset="1" stop-color="#75268B"/>
</linearGradient>
<clipPath id="clip0_144_68">
<rect width="32" height="32" fill="white"/>
</clipPath>
</defs>
</svg>

<svg width="32" height="32" fill="none" xmlns="http://www.w3.org/2000/svg">
  <path d="M16 0c-4.347 0-4.89.02-6.596.096C7.7.176 6.54.444 5.52.84a7.835 7.835 0 0 0-2.835 1.845A7.807 7.807 0 0 0 .84 5.52C.444 6.54.175 7.7.096 9.404.016 11.111 0 11.654 0 16c0 4.347.02 4.89.096 6.596.08 1.703.348 2.864.744 3.884a7.847 7.847 0 0 0 1.845 2.835A7.825 7.825 0 0 0 5.52 31.16c1.021.395 2.181.665 3.884.744 1.707.08 2.25.096 6.596.096 4.347 0 4.89-.02 6.596-.096 1.703-.08 2.864-.35 3.884-.744a7.864 7.864 0 0 0 2.835-1.845 7.814 7.814 0 0 0 1.845-2.835c.395-1.02.665-2.181.744-3.884.08-1.707.096-2.25.096-6.596 0-4.347-.02-4.89-.096-6.596-.08-1.703-.35-2.865-.744-3.884a7.853 7.853 0 0 0-1.845-2.835A7.796 7.796 0 0 0 26.48.84C25.46.444 24.299.175 22.596.096 20.889.016 20.346 0 16 0Zm0 2.88c4.27 0 4.78.021 6.467.095 1.56.073 2.406.332 2.969.553.75.29 1.28.636 1.843 1.195.558.56.905 1.092 1.194 1.841.219.563.48 1.41.551 2.97.076 1.687.093 2.194.093 6.466s-.02 4.78-.098 6.467c-.082 1.56-.342 2.406-.562 2.969-.298.75-.638 1.28-1.198 1.843a4.992 4.992 0 0 1-1.84 1.194c-.56.219-1.42.48-2.98.551-1.699.076-2.199.093-6.479.093-4.281 0-4.781-.02-6.479-.098-1.561-.082-2.421-.342-2.981-.562-.759-.298-1.28-.638-1.839-1.198a4.859 4.859 0 0 1-1.2-1.84c-.22-.56-.478-1.42-.56-2.98-.06-1.68-.081-2.199-.081-6.459 0-4.261.021-4.781.081-6.481.082-1.56.34-2.419.56-2.979.28-.76.639-1.28 1.2-1.841C5.22 4.12 5.741 3.76 6.5 3.48 7.06 3.26 7.901 3 9.461 2.92c1.7-.06 2.2-.08 6.479-.08l.06.04Zm0 4.904A8.215 8.215 0 0 0 7.784 16c0 4.54 3.68 8.216 8.216 8.216 4.54 0 8.216-3.68 8.216-8.216 0-4.54-3.68-8.216-8.216-8.216Zm0 13.55A5.332 5.332 0 0 1 10.667 16 5.332 5.332 0 0 1 16 10.667 5.332 5.332 0 0 1 21.333 16 5.332 5.332 0 0 1 16 21.333ZM26.461 7.46c0 1.06-.861 1.92-1.92 1.92-1.06 0-1.92-.861-1.92-1.92a1.921 1.921 0 0 1 3.84 0Z" fill="url(#a)"/>
  <defs>
    <linearGradient id="a" x1="16" y1="0" x2="16" y2="32" gradientUnits="userSpaceOnUse">
      <stop stop-color="#FFBF00"/>
      <stop offset="1" stop-color="#F2A50C"/>
    </linearGradient>
  </defs>
</svg>
